assets/icons/utility/summary.svg

<?xml version="1.0"?><svg xmlns="http://www.w3.org/2000/svg" width="52" height="52" viewBox="0 0 52 52"><path fill="#fff" d="m48.5 2h-45c-0.8 0-1.5 0.7-1.5 1.5v5c0 0.8 0.7 1.5 1.5 1.5h45c0.8 0 1.5-0.7 1.5-1.5v-5c0-0.8-0.7-1.5-1.5-1.5z m0 12h-35c-0.8 0-1.5 0.7-1.5 1.5v3c0 0.8 0.7 1.5 1.5 1.5h35c0.8 0 1.5-0.7 1.5-1.5v-3c0-0.8-0.7-1.5-1.5-1.5z m0 20h-35c-0.8 0-1.5 0.7-1.5 1.5v3c0 0.8 0.7 1.5 1.5 1.5h35c0.8 0 1.5-0.7 1.5-1.5v-3c0-0.8-0.7-1.5-1.5-1.5z m0 10h-39c-0.8 0-1.5-0.7-1.5-1.5v-7c0-0.8-0.7-1.5-1.5-1.5h-3c-0.8 0-1.5 0.7-1.5 1.5v13c0 0.8 0.7 1.5 1.5 1.5h45c0.8 0 1.5-0.7 1.5-1.5v-3c0-0.8-0.7-1.5-1.5-1.5z m0-20h-39c-0.8 0-1.5-0.7-1.5-1.5v-7c0-0.8-0.7-1.5-1.5-1.5h-3c-0.8 0-1.5 0.7-1.5 1.5v13c0 0.8 0.7 1.5 1.5 1.5h45c0.8 0 1.5-0.7 1.5-1.5v-3c0-0.8-0.7-1.5-1.5-1.5z"></path></svg>

<svg xmlns="http://www.w3.org/2000/svg" x="0px" y="0px"
	 width="52px" height="52px" viewBox="0 0 52 52" enable-background="new 0 0 52 52" xml:space="preserve">
<g>
	<g>
		<g>
			<path fill="#FFFFFF" d="M48.5,2h-45C2.7,2,2,2.7,2,3.5v5C2,9.3,2.7,10,3.5,10h45c0.8,0,1.5-0.7,1.5-1.5v-5C50,2.7,49.3,2,48.5,2z
				"/>
		</g>
	</g>
	<g>
		<g>
			<path fill="#FFFFFF" d="M48.5,14h-35c-0.8,0-1.5,0.7-1.5,1.5v3c0,0.8,0.7,1.5,1.5,1.5h35c0.8,0,1.5-0.7,1.5-1.5v-3
				C50,14.7,49.3,14,48.5,14z"/>
		</g>
	</g>
	<g>
		<g>
			<path fill="#FFFFFF" d="M48.5,34h-35c-0.8,0-1.5,0.7-1.5,1.5v3c0,0.8,0.7,1.5,1.5,1.5h35c0.8,0,1.5-0.7,1.5-1.5v-3
				C50,34.7,49.3,34,48.5,34z"/>
		</g>
	</g>
	<g>
		<g>
			<path fill="#FFFFFF" d="M48.5,44h-39C8.7,44,8,43.3,8,42.5v-7C8,34.7,7.3,34,6.5,34h-3C2.7,34,2,34.7,2,35.5v13
				C2,49.3,2.7,50,3.5,50h3H8h40.5c0.8,0,1.5-0.7,1.5-1.5v-3C50,44.7,49.3,44,48.5,44z"/>
		</g>
	</g>
	<g>
		<g>
			<path fill="#FFFFFF" d="M48.5,24h-39C8.7,24,8,23.3,8,22.5v-7C8,14.7,7.3,14,6.5,14h-3C2.7,14,2,14.7,2,15.5v13
				C2,29.3,2.7,30,3.5,30h2H8h40.5c0.8,0,1.5-0.7,1.5-1.5v-3C50,24.7,49.3,24,48.5,24z"/>
		</g>
	</g>
</g>
</svg>
